react/assets/icons/pan.svg

<svg role="img" xmlns="http://www.w3.org/2000/svg" width="48px" height="48px" viewBox="0 0 24 24" aria-labelledby="panIconTitle" stroke-linecap="square" stroke-linejoin="miter" fill="none"> <title id="panIconTitle">Pan</title> <path d="M20,14 L20,17 C20,19.209139 18.209139,21 16,21 L10.0216594,21 C8.75045497,21 7.55493392,20.3957659 6.80103128,19.3722467 L3.34541668,14.6808081 C2.81508416,13.9608139 2.94777982,12.950548 3.64605479,12.391928 C4.35756041,11.8227235 5.38335813,11.8798792 6.02722571,12.5246028 L8,14.5 L8,13 L8.00393081,13 L8,11 L8.0174523,6.5 C8.0174523,5.67157288 8.68902517,5 9.5174523,5 C10.3458794,5 11.0174523,5.67157288 11.0174523,6.5 L11.0174523,11 L11.0174523,4.5 C11.0174523,3.67157288 11.6890252,3 12.5174523,3 C13.3458794,3 14.0174523,3.67157288 14.0174523,4.5 L14.0174523,11 L14.0174523,5.5 C14.0174523,4.67157288 14.6890252,4 15.5174523,4 C16.3458794,4 17.0174523,4.67157288 17.0174523,5.5 L17.0174523,11 L17.0174523,7.5 C17.0174523,6.67157288 17.6890252,6 18.5174523,6 C19.3458794,6 20.0174523,6.67157288 20.0174523,7.5 L20.0058962,14 L20,14 Z"/> </svg>

<svg xmlns="http://www.w3.org/2000/svg" width="48" height="48" viewBox="0 0 24 24" aria-labelledby="panIconTitle" stroke-linecap="square" fill="none"><path d="M20 14v3a4 4 0 01-4 4h-5.978A4 4 0 016.8 19.372l-3.456-4.691c-.53-.72-.397-1.73.301-2.29a1.787 1.787 0 012.381.134L8 14.5V13h.004L8 11l.017-4.5a1.5 1.5 0 113 0V11 4.5a1.5 1.5 0 013 0V11 5.5a1.5 1.5 0 013 0V11 7.5a1.5 1.5 0 013 0l-.011 6.5H20z"/></svg>
